Otagle3/Assets/ikonySvG/WyswietlPanelFormatowaniaKsztaltu_K.svg

<svg id="SVGRoot" width="208" height="208" version="1.1" viewBox="0 0 208 208" xmlns="http://www.w3.org/2000/svg">
 <g transform="translate(0,7)">
  <g transform="matrix(3.7795 0 0 3.7795 10.171 -6.7758)">
   <g transform="translate(-1.0884 -121.69)">
    <g transform="translate(1.6608 -59.209)">
     <g transform="translate(-.6443 -59.335)">
      <g transform="translate(-1396.8 269.89)">
       <g transform="translate(-57.972 -.024822)">
        <g transform="translate(1658.1 73.867)">
         <g transform="translate(-203.03 -103.33)">
          <flowRoot transform="matrix(.26458 0 0 .26458 -2.875 1.091)" fill="#000000" font-family="sans-serif" font-size="40px" letter-spacing="0px" word-spacing="0px" style="line-height:1.25" xml:space="preserve"><flowRegion><rect x="-85.582" y="-60.812" width="342.33" height="293.65"/></flowRegion><flowPara/></flowRoot>
          <g transform="translate(-1039.4 318.88)">
           <flowRoot transform="matrix(.26458 0 0 .26458 1036.5 -317.79)" fill="#000000" font-family="sans-serif" font-size="40px" letter-spacing="0px" word-spacing="0px" style="line-height:1.25" xml:space="preserve"><flowRegion><rect x="-105.21" y="-13.703" width="562.17" height="513.49"/></flowRegion><flowPara/></flowRoot>
           <g transform="translate(-66.134 .039287)">
            <g transform="translate(-66.173 .043409)">
             <flowRoot transform="matrix(.26458 0 0 .26458 1168.8 -317.87)" fill="#000000" font-family="sans-serif" font-size="40px" letter-spacing="0px" word-spacing="0px" style="line-height:1.25" xml:space="preserve"><flowRegion><rect x="-114.63" y="-91.434" width="675.23" height="522.91"/></flowRegion><flowPara/></flowRoot>
             <g transform="translate(-66.2 -.040316)">
              <g transform="translate(-65.918 -.60254)">
               <g transform="translate(-66.6 .14883)">
                <flowRoot fill="black" font-family="sans-serif" font-size="40px" letter-spacing="0px" word-spacing="0px" style="line-height:1.25" xml:space="preserve"><flowRegion><rect x="-24.34" y="-19.695" width="252.04" height="245.75"/></flowRegion><flowPara/></flowRoot>
                <g transform="translate(-68.678 -.48293)">
                 <flowRoot fill="black" font-family="sans-serif" font-size="40px" letter-spacing="0px" word-spacing="0px" style="line-height:1.25" xml:space="preserve"><flowRegion><rect x="-65.168" y="-26.762" width="382.37" height="335.26"/></flowRegion><flowPara/></flowRoot>
                 <g transform="translate(-63.347 .4912)">
                  <g transform="translate(529.82 -.18087)">
                   <g transform="translate(794.67 .06923)">
                    <g transform="translate(-198.36 .17569)">
                     <g transform="translate(-530.68 .043413)">
                      <g transform="translate(912.04 -.041317)">
                       <g transform="translate(132.58 -.39794)">
                        <g transform="translate(-580.62 .35866)">
                         <g transform="translate(-264.6 -.1571)">
                          <g transform="translate(463.55 .097138)">
                           <g transform="translate(-397.36 .059959)">
                            <g transform="translate(66.026 -.30592)">
                             <g transform="translate(-264.69 -.093008)">
                              <g transform="translate(734.89 179.33)">
                               <g transform="translate(-205.07 -178.97)">
                                <g transform="translate(-1081.1 -686.85)">
                                 <flowRoot fill="black" font-family="sans-serif" font-size="40px" letter-spacing="0px" word-spacing="0px" style="line-height:1.25" xml:space="preserve"><flowRegion><rect x="21" y="-71" width="223" height="308"/></flowRegion><flowPara/></flowRoot>
                                 <g transform="translate(-112.28 .55746)">
                                  <g transform="translate(-396.77 -.26462)">
                                   <g transform="translate(167.68 .26462)">
                                    <g transform="translate(457.35 -.55746)">
                                     <g transform="translate(452.66 .26458)">
                                      <g transform="translate(-200.71 456.02)">
                                       <g transform="translate(982.25 -278.99)">
                                        <flowRoot fill="black" font-family="sans-serif" font-size="40px" letter-spacing="0px" word-spacing="0px" style="line-height:1.25" xml:space="preserve"><flowRegion><rect x="-78" y="-47" width="652" height="503"/></flowRegion><flowPara/></flowRoot>
                                        <g transform="translate(60.987 1.1523e-6)">
                                         <g transform="translate(57.841)">
                                          <g transform="translate(-236.4)">
                                           <g transform="translate(-57.885 .26458)">
                                            <rect x="214.93" y="192.33" width="52.632" height="52.632" fill="#87deaa" stroke="#000" stroke-linecap="round" stroke-width=".28429" style="paint-order:fill markers stroke"/>
                                            <text x="241.45518" y="229.57309" font-family="sans-serif" font-size="4.9389px" letter-spacing="0px" stroke-width=".26458" text-align="end" text-anchor="middle" word-spacing="0px" style="line-height:1.04999995" xml:space="preserve"><tspan x="241.45518" y="229.57309" text-align="center">Wyświetl panel</tspan><tspan x="241.45518" y="236.24059" text-align="center">formatowania</tspan><tspan x="241.45518" y="242.9081" text-align="center">kształtu</tspan></text>
                                            <g transform="matrix(.48346 0 0 .48346 225.77 193.44)">
                                             <rect x="13" y="38" width="2" height="2"/>
                                             <rect x="9" y="38" width="2" height="2"/>
                                             <rect x="5" y="38" width="2" height="2"/>
                                             <path d="m60.748 39.718c-1.124-.899-2.397-1.587-3.748-2.048v-1.67c0-1.654-1.346-3-3-3 0-1.103.897-2 2-2h3c2.206 0 4-1.794 4-4s-1.794-4-4-4h-10c-1.103 0-2-.897-2-2v-10c0-1.103.897-2 2-2h7c2.206 0 4-1.794 4-4s-1.794-4-4-4h-23c-2.206 0-4 1.794-4 4v.101c-2.279.465-4 2.485-4 4.899v4h-19c-2.757 0-5 2.243-5 5v20c0 2.757 2.243 5 5 5h10v4h-4v2h20v-2h-4v-4h10c2.757 0 5-2.243 5-5v-20c0-2.757-2.243-5-5-5h-3v-4c0-2.414-1.721-4.434-4-4.899v-.101c0-1.103.897-2 2-2h23c1.103 0 2 .897 2 2s-.897 2-2 2h-7c-2.206 0-4 1.794-4 4v10c0 2.206 1.794 4 4 4h10c1.103 0 2 .897 2 2s-.897 2-2 2h-3c-2.206 0-4 1.794-4 4-1.654 0-3 1.346-3 3v1.67c-1.351.461-2.624 1.149-3.748 2.048-1.431 1.145-2.252 2.852-2.252 4.685v5.11c0 6.105 3.892 11.505 9.684 13.436l.316.105.316-.105c5.792-1.931 9.684-7.33 9.684-13.436v-5.11c0-1.832-.821-3.54-2.252-4.685zm-28.616-12.718-2.132 3.197-2.132-3.197zm.868-2h-2v-12h2zm-4 0h-2v-12h2zm9 17h-18v2h6v4h-8v-6h-12c-1.654 0-3-1.346-3-3v-3h11.697l3 2h23.303v1c0 1.654-1.346 3-3 3zm0-26c1.654 0 3 1.346 3 3v17h-22.697l-3-2h-12.303v-15c0-1.654 1.346-3 3-3h19v10.303l5 7.5 5-7.5v-10.303zm-5-6v1h-6v-1c0-1.654 1.346-3 3-3s3 1.346 3 3zm28 34.403v.597h-5c0-1.103-.897-2-2-2v-3.947c2 .195 3.923.966 5.499 2.227.954.763 1.501 1.902 1.501 3.123zm-.279 7.678c-.438-.05-.894-.081-1.389-.081-2.387 0-3.644.58-4.753 1.092-1.057.487-1.969.908-3.916.908-1.946 0-2.857-.421-3.912-.908-.425-.196-.861-.397-1.369-.574-.247-.966-.382-1.973-.382-3.005v-2.513h5v2c0 1.103.897 2 2 2h2c1.103 0 2-.897 2-2v-2h5v2.513c0 .877-.1 1.735-.279 2.568zm-6.721-7.081.001 4h-2.001v-4zm-3-9c0-.551.449-1 1-1h2c.551 0 1 .449 1 1v1.167c-.659-.108-1.328-.167-2-.167s-1.341.059-2 .167zm-4.499 5.279c1.576-1.26 3.499-2.031 5.499-2.226v3.947c-1.103 0-2 .897-2 2h-5v-.597c0-1.221.547-2.36 1.501-3.124zm6.499 19.662c-2.927-1.065-5.255-3.177-6.629-5.825 1.009.449 2.227.884 4.292.884 2.387 0 3.644-.58 4.753-1.092 1.056-.487 1.968-.908 3.916-.908.283 0 .541.017.798.035-1.262 3.152-3.813 5.699-7.13 6.906z"/>
                                             <path d="m19.792 22.601c.138-.919-.157-1.866-.842-2.551s-1.628-.98-2.55-.842c-.553-.748-1.431-1.208-2.4-1.208s-1.847.46-2.399 1.208c-.918-.138-1.865.157-2.55.842s-.98 1.631-.842 2.551c-.749.552-1.209 1.43-1.209 2.399s.46 1.847 1.208 2.399c-.138.919.157 1.865.842 2.55.686.686 1.634.98 2.55.842.553.749 1.431 1.209 2.4 1.209s1.847-.46 2.399-1.208c.916.137 1.865-.157 2.55-.842s.98-1.631.842-2.55c.749-.553 1.209-1.431 1.209-2.4s-.46-1.847-1.208-2.399zm-1.498 3.345-1.148.356.559 1.064c.206.392.138.861-.169 1.169-.308.308-.776.375-1.168.169l-1.064-.561-.356 1.149c-.133.424-.513.708-.948.708s-.815-.284-.946-.707l-.356-1.149-1.064.561c-.391.205-.861.138-1.168-.169-.307-.308-.375-.777-.169-1.169l.559-1.064-1.148-.356c-.424-.132-.708-.512-.708-.947s.284-.815.707-.946l1.149-.357-.561-1.064c-.206-.392-.138-.861.169-1.168s.777-.376 1.169-.169l1.064.559.356-1.148c.132-.423.512-.707.947-.707s.815.284.946.706l.356 1.148 1.064-.559c.391-.208.861-.138 1.169.169.307.308.375.777.169 1.168l-.561 1.064 1.149.357c.424.132.708.512.708.947s-.284.815-.706.946z"/>
                                             <path d="m14 22c-1.654 0-3 1.346-3 3s1.346 3 3 3 3-1.346 3-3-1.346-3-3-3zm0 4c-.551 0-1-.449-1-1s.449-1 1-1 1 .449 1 1-.449 1-1 1z"/>
                                            </g>
                                           </g>
                                          </g>
                                         </g>
                                        </g>
                                       </g>
                                      </g>
                                     </g>
                                    </g>
                                   </g>
                                  </g>
                                 </g>
                                </g>
                               </g>
                              </g>
                             </g>
                            </g>
                           </g>
                          </g>
                         </g>
                        </g>
                       </g>
                      </g>
                     </g>
                    </g>
                   </g>
                  </g>
                 </g>
                </g>
               </g>
              </g>
             </g>
            </g>
           </g>
          </g>
         </g>
        </g>
       </g>
      </g>
     </g>
    </g>
   </g>
  </g>
 </g>
</svg>

<?xml version="1.0" encoding="UTF-8" standalone="no"?>
<svg
   xmlns:dc="http://purl.org/dc/elements/1.1/"
   xmlns:cc="http://creativecommons.org/ns#"
   xmlns:rdf="http://www.w3.org/1999/02/22-rdf-syntax-ns#"
   xmlns:svg="http://www.w3.org/2000/svg"
   xmlns="http://www.w3.org/2000/svg"
   id="svg47"
   version="1.1"
   viewBox="0 0 52.758294 52.758296"
   height="199.40143"
   width="199.40143">
  <defs
     id="defs42">
    <pattern
       id="EMFhbasepattern"
       patternUnits="userSpaceOnUse"
       width="6"
       height="6"
       x="0"
       y="0" />
  </defs>
  <metadata
     id="metadata45">
    <rdf:RDF>
      <cc:Work
         rdf:about="">
        <dc:format>image/svg+xml</dc:format>
        <dc:type
           rdf:resource="http://purl.org/dc/dcmitype/StillImage" />
        <dc:title></dc:title>
      </cc:Work>
    </rdf:RDF>
  </metadata>
  <g
     id="g8556"
     transform="translate(49.836509,-375.23204)">
    <g
       id="g5305">
      <text
         id="text898-7-3-6-8-3-3-0-66-7-8-8-0-8-3-4-2-6-22-3-3-4-7-0-2-6-2"
         y="425.61624"
         x="-23.21401"
         style="font-size:6.3499999px;line-height:0.94999999;font-family:voestalpine;-inkscape-font-specification:voestalpine;text-align:center;letter-spacing:0px;word-spacing:0px;text-anchor:middle;fill:#ffffff;fill-opacity:1;stroke-width:0.26458299"
         xml:space="preserve"><tspan
           style="font-size:6.3499999px;text-align:center;text-anchor:middle;fill:#ffffff;fill-opacity:1;stroke-width:0.26458299"
           y="425.61624"
           x="-23.21401"
           id="tspan3280-8-2-3-8">Pokaż nagłówek</tspan></text>
      <g
         style="fill:#ffffff;fill-opacity:1;stroke:#ffffff;stroke-opacity:1"
         id="g3425-7-6"
         transform="matrix(0.43424404,0,0,-0.43424404,-44.80073,415.59384)">
        <rect
           id="rect3393-7-1"
           height="2"
           width="13.89"
           y="68.667"
           x="17.409"
           style="fill:#ffffff;fill-opacity:1;stroke:#ffffff;stroke-opacity:1" />
        <path
           id="path3395-1-7"
           d="M 85.235,77.833 H 14.106 c -2.998,0 -5.436,-2.438 -5.436,-5.436 V 23.27 c 0,-2.998 2.438,-5.436 5.436,-5.436 h 71.129 c 2.998,0 5.436,2.438 5.436,5.436 v 49.128 c -0.001,2.998 -2.438,5.435 -5.436,5.435 z m -71.129,-58 c -1.895,0 -3.436,1.541 -3.436,3.437 v 49.128 c 0,1.895 1.541,3.436 3.436,3.436 h 71.129 c 1.895,0 3.436,-1.541 3.436,-3.436 V 23.27 c 0,-1.896 -1.541,-3.437 -3.436,-3.437 z"
           style="fill:#ffffff;fill-opacity:1;stroke:#ffffff;stroke-opacity:1" />
        <rect
           id="rect3397-6-6"
           height="2"
           width="13.89"
           y="68.667"
           x="42.648998"
           style="fill:#ffffff;fill-opacity:1;stroke:#ffffff;stroke-opacity:1" />
        <rect
           id="rect3399-8-5"
           height="2"
           width="13.89"
           y="68.667"
           x="67.704002"
           style="fill:#ffffff;fill-opacity:1;stroke:#ffffff;stroke-opacity:1" />
        <rect
           id="rect3401-4-7"
           height="2"
           width="13.89"
           y="62.667"
           x="17.500999"
           style="fill:#ffffff;fill-opacity:1;stroke:#ffffff;stroke-opacity:1" />
        <rect
           id="rect3403-9-4"
           height="2"
           width="13.89"
           y="62.667"
           x="42.742001"
           style="fill:#ffffff;fill-opacity:1;stroke:#ffffff;stroke-opacity:1" />
        <rect
           id="rect3405-2-5"
           height="2"
           width="13.89"
           y="62.667"
           x="67.795998"
           style="fill:#ffffff;fill-opacity:1;stroke:#ffffff;stroke-opacity:1" />
        <rect
           id="rect3407-0-9"
           height="2"
           width="64.139"
           y="56.667"
           x="17.500999"
           style="fill:#ffffff;fill-opacity:1;stroke:#ffffff;stroke-opacity:1" />
      </g>
      <g
         id="g1236"
         transform="translate(-264.41168,183.24939)">
        <rect
           y="192.32553"
           x="214.92523"
           height="52.63237"
           width="52.632374"
           id="rect833-2-8-6-2-6-4-8-1-7-4-6-9-4-5-2-1-0-8-7-5-8"
           style="fill:#87deaa;fill-opacity:1;stroke:#000000;stroke-width:0.28429499;stroke-linecap:round;stroke-miterlimit:4;stroke-dasharray:none;stroke-opacity:1;paint-order:fill markers stroke" />
        <text
           id="text837-2-5-3-5-4-2-1-6-9-68-0-7-6-7-4-4-4-2-0-6-8"
           y="230.10225"
           x="241.45518"
           style="font-size:6.3499999px;line-height:1.04999995;font-family:voestalpine;-inkscape-font-specification:voestalpine;text-align:end;letter-spacing:0px;word-spacing:0px;text-anchor:end;stroke-width:0.26458299"
           xml:space="preserve"><tspan
             style="font-size:6.3499999px;text-align:center;text-anchor:middle;stroke-width:0.26458299"
             y="230.10225"
             x="241.45518"
             id="tspan4116-7-2-8-7">Wyświetl panel</tspan><tspan
             style="font-size:6.3499999px;text-align:center;text-anchor:middle;stroke-width:0.26458299"
             y="236.76974"
             x="241.45518"
             id="tspan4578">formatowania</tspan><tspan
             style="font-size:6.3499999px;text-align:center;text-anchor:middle;stroke-width:0.26458299"
             y="243.43726"
             x="241.45518"
             id="tspan4310-4-5">kształtu</tspan></text>
        <g
           style="fill:#000000"
           id="g4615"
           transform="matrix(0.48345894,0,0,0.48345894,225.77073,193.44259)">
          <g
             id="g4598">
            <rect
               id="rect4586"
               height="2"
               width="2"
               y="38"
               x="13" />
            <rect
               id="rect4588"
               height="2"
               width="2"
               y="38"
               x="9" />
            <rect
               id="rect4590"
               height="2"
               width="2"
               y="38"
               x="5" />
            <path
               id="path4592"
               d="M 60.748,39.718 C 59.624,38.819 58.351,38.131 57,37.67 V 36 c 0,-1.654 -1.346,-3 -3,-3 0,-1.103 0.897,-2 2,-2 h 3 c 2.206,0 4,-1.794 4,-4 0,-2.206 -1.794,-4 -4,-4 H 49 c -1.103,0 -2,-0.897 -2,-2 V 11 c 0,-1.103 0.897,-2 2,-2 h 7 C 58.206,9 60,7.206 60,5 60,2.794 58.206,1 56,1 H 33 C 30.794,1 29,2.794 29,5 V 5.101 C 26.721,5.566 25,7.586 25,10 v 4 H 6 c -2.757,0 -5,2.243 -5,5 v 20 c 0,2.757 2.243,5 5,5 h 10 v 4 h -4 v 2 h 20 v -2 h -4 v -4 h 10 c 2.757,0 5,-2.243 5,-5 V 19 c 0,-2.757 -2.243,-5 -5,-5 H 35 V 10 C 35,7.586 33.279,5.566 31,5.101 V 5 c 0,-1.103 0.897,-2 2,-2 h 23 c 1.103,0 2,0.897 2,2 0,1.103 -0.897,2 -2,2 h -7 c -2.206,0 -4,1.794 -4,4 v 10 c 0,2.206 1.794,4 4,4 h 10 c 1.103,0 2,0.897 2,2 0,1.103 -0.897,2 -2,2 h -3 c -2.206,0 -4,1.794 -4,4 -1.654,0 -3,1.346 -3,3 v 1.67 c -1.351,0.461 -2.624,1.149 -3.748,2.048 v 0 C 43.821,40.863 43,42.57 43,44.403 v 5.11 c 0,6.105 3.892,11.505 9.684,13.436 L 53,63.054 53.316,62.949 C 59.108,61.018 63,55.619 63,49.513 v -5.11 c 0,-1.832 -0.821,-3.54 -2.252,-4.685 z M 32.132,27 30,30.197 27.868,27 Z M 33,25 H 31 V 13 h 2 z m -4,0 H 27 V 13 h 2 z m 9,17 H 20 v 2 h 6 v 4 H 18 V 42 H 6 C 4.346,42 3,40.654 3,39 v -3 h 11.697 l 3,2 H 41 v 1 c 0,1.654 -1.346,3 -3,3 z m 0,-26 c 1.654,0 3,1.346 3,3 V 36 H 18.303 l -3,-2 H 3 V 19 c 0,-1.654 1.346,-3 3,-3 h 19 v 10.303 l 5,7.5 5,-7.5 V 16 Z m -5,-6 v 1 h -6 v -1 c 0,-1.654 1.346,-3 3,-3 1.654,0 3,1.346 3,3 z M 61,44.403 V 45 h -5 c 0,-1.103 -0.897,-2 -2,-2 v -3.947 c 2,0.195 3.923,0.966 5.499,2.227 0.954,0.763 1.501,1.902 1.501,3.123 z m -0.279,7.678 C 60.283,52.031 59.827,52 59.332,52 56.945,52 55.688,52.58 54.579,53.092 53.522,53.579 52.61,54 50.663,54 48.717,54 47.806,53.579 46.751,53.092 46.326,52.896 45.89,52.695 45.382,52.518 45.135,51.552 45,50.545 45,49.513 V 47 h 5 v 2 c 0,1.103 0.897,2 2,2 h 2 c 1.103,0 2,-0.897 2,-2 v -2 h 5 v 2.513 c 0,0.877 -0.1,1.735 -0.279,2.568 z M 54,45 54.001,49 H 52 v -4 z m -3,-9 c 0,-0.551 0.449,-1 1,-1 h 2 c 0.551,0 1,0.449 1,1 v 1.167 C 54.341,37.059 53.672,37 53,37 c -0.672,0 -1.341,0.059 -2,0.167 z m -4.499,5.279 C 48.077,40.019 50,39.248 52,39.053 V 43 c -1.103,0 -2,0.897 -2,2 h -5 v -0.597 c 0,-1.221 0.547,-2.36 1.501,-3.124 z M 53,60.941 C 50.073,59.876 47.745,57.764 46.371,55.116 47.38,55.565 48.598,56 50.663,56 53.05,56 54.307,55.42 55.416,54.908 56.472,54.421 57.384,54 59.332,54 c 0.283,0 0.541,0.017 0.798,0.035 -1.262,3.152 -3.813,5.699 -7.13,6.906 z" />
            <path
               id="path4594"
               d="M 19.792,22.601 C 19.93,21.682 19.635,20.735 18.95,20.05 18.265,19.365 17.322,19.07 16.4,19.208 15.847,18.46 14.969,18 14,18 13.031,18 12.153,18.46 11.601,19.208 10.683,19.07 9.736,19.365 9.051,20.05 8.366,20.735 8.071,21.681 8.209,22.601 7.46,23.153 7,24.031 7,25 c 0,0.969 0.46,1.847 1.208,2.399 -0.138,0.919 0.157,1.865 0.842,2.55 0.686,0.686 1.634,0.98 2.55,0.842 C 12.153,31.54 13.031,32 14,32 c 0.969,0 1.847,-0.46 2.399,-1.208 0.916,0.137 1.865,-0.157 2.55,-0.842 0.685,-0.685 0.98,-1.631 0.842,-2.55 C 20.54,26.847 21,25.969 21,25 21,24.031 20.54,23.153 19.792,22.601 Z m -1.498,3.345 -1.148,0.356 0.559,1.064 c 0.206,0.392 0.138,0.861 -0.169,1.169 -0.308,0.308 -0.776,0.375 -1.168,0.169 l -1.064,-0.561 -0.356,1.149 C 14.815,29.716 14.435,30 14,30 13.565,30 13.185,29.716 13.054,29.293 l -0.356,-1.149 -1.064,0.561 c -0.391,0.205 -0.861,0.138 -1.168,-0.169 -0.307,-0.308 -0.375,-0.777 -0.169,-1.169 L 10.856,26.303 9.708,25.947 C 9.284,25.815 9,25.435 9,25 9,24.565 9.284,24.185 9.707,24.054 l 1.149,-0.357 -0.561,-1.064 c -0.206,-0.392 -0.138,-0.861 0.169,-1.168 0.307,-0.307 0.777,-0.376 1.169,-0.169 l 1.064,0.559 0.356,-1.148 C 13.185,20.284 13.565,20 14,20 c 0.435,0 0.815,0.284 0.946,0.706 l 0.356,1.148 1.064,-0.559 c 0.391,-0.208 0.861,-0.138 1.169,0.169 0.307,0.308 0.375,0.777 0.169,1.168 l -0.561,1.064 1.149,0.357 C 18.716,24.185 19,24.565 19,25 c 0,0.435 -0.284,0.815 -0.706,0.946 z" />
            <path
               id="path4596"
               d="m 14,22 c -1.654,0 -3,1.346 -3,3 0,1.654 1.346,3 3,3 1.654,0 3,-1.346 3,-3 0,-1.654 -1.346,-3 -3,-3 z m 0,4 c -0.551,0 -1,-0.449 -1,-1 0,-0.551 0.449,-1 1,-1 0.551,0 1,0.449 1,1 0,0.551 -0.449,1 -1,1 z" />
          </g>
        </g>
      </g>
    </g>
  </g>
</svg>
